Flat Remix Dark/panel/indicator-keyboard-Cr.svg

<svg xmlns="http://www.w3.org/2000/svg" width="22" height="22" version="1.1">
 <defs>
  <style id="current-color-scheme" type="text/css">
   .ColorScheme-Text { color:#d3dae3; } .ColorScheme-Highlight { color:#5294e2; }
  </style>
 </defs>
 <rect style="opacity:0" width="22" height="22" x="0" y="0"/>
 <path style="fill:none;stroke:currentColor;stroke-width:1.99999976;stroke-linecap:round;stroke-linejoin:bevel" class="ColorScheme-Text" d="m 9.0003166,13.998697 c 0,1 0,1 -1,0.999552 -0.39877,-1.79e-4 -1.742437,4.48e-4 -2,4.48e-4 -0.462291,0 -0.999999,0 -0.999999,-1 l 1.4e-5,-3.00045 -1.4e-5,-2.9995499 c -5e-6,-0.9999999 0,-0.9999999 0.999999,-0.9999999 0.432209,0 0.81111,-2.531e-4 1.000015,-4.492e-4 0.423096,-4.393e-4 0.45247,4.492e-4 0.999985,4.492e-4 1,0 1,0 1,0.9999999"/>
 <path style="fill:none;stroke:currentColor;stroke-width:1.99999976;stroke-linecap:round" class="ColorScheme-Text" d="m 17.00315,14.999823 -2.000001,-3 m -2.000001,-1.000002 1.999982,-4e-6 c 0.423836,-1e-6 0.729048,4.55e-4 1.00001,4.55e-4 0.999998,0 0.999998,0 0.999998,-1.000001 0,-0.2567203 1.5e-5,-0.5997725 1.2e-5,-1.0004477 l -1.2e-5,-0.9995519 c 0,-1 0,-1 -0.999998,-1 -0.224504,0 -0.544112,0.00944 -0.874519,0.00719 -1.12549,-0.00765 -2.125473,-0.00756 -2.125473,-0.00756 M 13.003246,15 l 0,-8.0000003"/>
</svg>

<svg xmlns="http://www.w3.org/2000/svg" width="12pt" height="12pt" version="1.1" viewBox="0 0 12 12">
 <g>
  <path style="fill:none;stroke-width:2;stroke-linecap:round;stroke-linejoin:bevel;stroke:rgb(82.745098%,85.490196%,89.019608%)" d="M 9 14 C 9 15 9 15 8 15 C 7.601562 15 6.257812 15 6 15 C 5.539062 15 5 15 5 14 L 5 8 C 5 7 5 7 6 7 C 6.429688 7 6.8125 7 7 7 C 7.421875 7 7.453125 7 8 7 C 9 7 9 7 9 8" transform="matrix(0.5,0,0,0.5,0.5,0.5)"/>
  <path style="fill:none;stroke-width:2;stroke-linecap:round;stroke:rgb(82.745098%,85.490196%,89.019608%)" d="M 17 15 L 15 12 M 13 11 L 15 11 C 15.429688 11 15.734375 11 16 11 C 17 11 17 11 17 10 C 17 9.742188 17 9.398438 17 9 L 17 8 C 17 7 17 7 16 7 C 15.78125 7 15.460938 7.007812 15.125 7.007812 C 14 7 13 7 13 7 M 13 15 L 13 7" transform="matrix(0.5,0,0,0.5,0.5,0.5)"/>
 </g>
</svg>
